packages/icons/src/svg/wallet-connect.svg

<svg width="24" height="25" viewBox="0 0 40 25" fill="none" xmlns="http://www.w3.org/2000/svg">
<path d="M8.19263 4.83471C14.7141 -1.55037 25.2876 -1.55037 31.8091 4.83471L32.5939 5.60317C32.92 5.92242 32.92 6.44004 32.5939 6.75929L29.909 9.38803C29.746 9.54766 29.4817 9.54766 29.3186 9.38803L28.2385 8.33054C23.689 3.87614 16.3127 3.87614 11.7631 8.33054L10.6065 9.46302C10.4434 9.62265 10.1791 9.62265 10.016 9.46302L7.33116 6.83429C7.00508 6.51503 7.00508 5.99742 7.33116 5.67816L8.19263 4.83471ZM37.3617 10.2712L39.7512 12.6108C40.0773 12.9301 40.0773 13.4477 39.7512 13.7669L28.9765 24.3164C28.6505 24.6357 28.1218 24.6357 27.7957 24.3164C27.7957 24.3164 27.7957 24.3164 27.7957 24.3164L20.1485 16.8291C20.067 16.7493 19.9348 16.7493 19.8533 16.8291C19.8533 16.8291 19.8533 16.8291 19.8533 16.8291L12.2062 24.3164C11.8802 24.6357 11.3515 24.6357 11.0254 24.3164C11.0254 24.3164 11.0254 24.3164 11.0254 24.3164L0.250415 13.7668C-0.0756593 13.4475 -0.0756593 12.9299 0.250415 12.6107L2.63998 10.2711C2.96605 9.95183 3.49473 9.95183 3.8208 10.2711L11.4681 17.7585C11.5497 17.8383 11.6818 17.8383 11.7633 17.7585C11.7633 17.7585 11.7633 17.7585 11.7633 17.7585L19.4103 10.2711C19.7364 9.95182 20.265 9.95181 20.5911 10.2711C20.5911 10.2711 20.5911 10.2711 20.5911 10.2711L28.2384 17.7585C28.32 17.8383 28.4521 17.8383 28.5336 17.7585L36.1808 10.2712C36.5069 9.95196 37.0356 9.95196 37.3617 10.2712Z" fill="#3B99FC"/>
</svg>

<svg width="40" height="25" fill="none" xmlns="http://www.w3.org/2000/svg"><path d="M8.192 4.834c6.522-6.385 17.095-6.385 23.617 0l.784.769a.805.805 0 0 1 0 1.156l-2.685 2.629a.424.424 0 0 1-.59 0l-1.08-1.058c-4.55-4.454-11.926-4.454-16.475 0l-1.157 1.133a.424.424 0 0 1-.59 0L7.33 6.833a.805.805 0 0 1 0-1.155l.861-.844zm29.17 5.437 2.389 2.34a.805.805 0 0 1 0 1.155l-10.775 10.55a.848.848 0 0 1-1.18 0l-7.648-7.487a.212.212 0 0 0-.295 0l-7.647 7.487a.848.848 0 0 1-1.181 0L.25 13.766a.805.805 0 0 1 0-1.156l2.39-2.34a.848.848 0 0 1 1.18 0l7.648 7.488c.081.08.213.08.295 0l7.647-7.487a.848.848 0 0 1 1.18 0l7.648 7.487c.082.08.214.08.295 0l7.647-7.487a.848.848 0 0 1 1.181 0z" fill="#3B99FC"/></svg>
